X: 1465
T: Garibaldi's March
B: australian traditional tunes wiki
M:4/4
L:1/8
R: March
Q: 1/4=100
K:C
V:1 
||"C"c2GGc2d2|e4g3f|"G7"e2d2c2d2|"C"e4g4|e4g2g2|"F"a4"C"g4|"G7"f4"C"e4|"G7"g2ddd2d2|
d4g2g2|"F"a2a2f2ed|"C"g2g2e2c2|"G7"d2efe2d2|"C"c4"F"a4|"C"g4"G7"d4|"C"c4"F"a4|"G7"g4B4|"C"c8||
% abcbook-tune_id 6342d53a692a8c0274c8c4b5


% abcbook-boost 0
% abcbook-tablature 
% abcbook-transpose 
% abcbook-lastupdated 1665324366417
% abcbook-soundfonts 
% abcbook-repeats 1
% NFF Book 2009

